discard/discard3.svg

<?xml version="1.0" encoding="iso-8859-1"?>
<!-- Generator: Adobe Illustrator 10, SVG Export Plug-In . SVG Version: 3.0.0 Build 76)  -->
<!DOCTYPE svg PUBLIC "-//W3C//DTD SVG 1.0//EN"    "http://www.w3.org/TR/2001/REC-SVG-20010904/DTD/svg10.dtd" [
	<!ENTITY ns_flows "http://ns.adobe.com/Flows/1.0/">
	<!ENTITY ns_svg "http://www.w3.org/2000/svg">
	<!ENTITY ns_xlink "http://www.w3.org/1999/xlink">
]>
<svg  xmlns="&ns_svg;" xmlns:xlink="&ns_xlink;" xmlns:a="http://ns.adobe.com/AdobeSVGViewerExtensions/3.0/"
	 width="468.311" height="461.854" viewBox="0 0 468.311 461.854"
	 style="overflow:visible;enable-background:new 0 0 468.311 461.854" xml:space="preserve">
	<style type="text/css">
	<![CDATA[
		@font-face{font-family:'Times-Roman';src:url(7CA7AD7F.cef)}
	]]>
	</style>
	<g id="Layer_1">
		<text transform="matrix(1 0 0 1 0 398.8916)"><tspan x="0" y="0" style="font-family:'Times-Roman'; font-size:12;">&quot;Discard 3&quot;</tspan><tspan x="0" y="14.5" style="font-family:'Times-Roman'; font-size:12;">Copyright </tspan><tspan x="51.668" y="14.5" style="font-family:'Times-Roman'; font-size:12;">&#xA9;</tspan><tspan x="60.785" y="14.5" style="font-family:'Times-Roman'; font-size:12;"> 2000 Rob Myers http://www.robmyers.org/ .</tspan><tspan x="0" y="29" style="font-family:'Times-Roman'; font-size:12;">This work is licensed under the Creative Commons Attribution-ShareAlike License.</tspan><tspan x="0" y="43.5" style="font-family:'Times-Roman'; font-size:12;">To view a copy of this license, visit http://creativecommons.org/licenses/by-sa/1.0/ </tspan><tspan x="0" y="58" style="font-family:'Times-Roman'; font-size:12;">or send a letter to Creative Commons, 559 Nathan Abbott Way, Stanford, California 94305, USA.</tspan></text>
		<g>
			<g>
				<path d="M190.928,379.208c30.168,1.008,74.88-19.656,115.272-56.017c55.656-50.039,82.584-111.455,59.903-136.655
					c-14.976-16.632-47.951-13.392-84.672,5.184c18.721-40.176,19.368-78.336-2.376-96.912
					c-19.439-17.208-53.424-13.176-88.128,6.768v43.92c30.456-23.328,59.544-32.688,72.145-20.952
					c16.92,15.696-1.729,63.36-41.473,106.056c-10.008,10.801-20.447,20.232-30.672,28.08V308
					c8.496-17.28,22.32-36.936,40.104-55.729c40.032-42.408,85.319-65.016,100.8-50.328c15.48,14.617-4.464,61.129-44.496,103.465
					c-36.72,38.88-77.904,61.128-96.408,53.279V379.208z M167.024,117.848c7.056-46.008-2.448-83.664-26.856-93.456
					c-4.464-1.728-9.216-2.52-14.112-2.376v26.568c17.929,11.448,18.36,61.2,0.288,115.272c-0.072,0.216-0.216,0.432-0.288,0.72
					v55.584c8.208-15.049,19.801-31.104,34.2-46.584c10.008-10.8,20.448-20.232,30.672-28.08v-43.92
					C182.936,106.184,174.944,111.656,167.024,117.848z M126.056,308.432c12.385,1.801,26.712-0.287,41.832-5.904
					c-13.823,27.648-16.2,52.129-3.815,65.881c6.191,6.912,15.479,10.367,26.855,10.8v-20.521c-1.656-0.72-3.168-1.728-4.392-2.879
					c-8.64-8.137-6.265-26.137,4.392-47.809v-49.32c-25.56,19.584-50.111,29.376-64.872,25.057V308.432z M126.056,22.016
					c-12.023,0.432-25.199,6.408-38.304,16.92v26.208c12.456-14.4,24.912-21.6,34.848-18.288c1.225,0.432,2.376,1.008,3.456,1.728
					V22.016z M87.752,270.271c2.088,11.521,6.912,21.097,14.832,27.793c6.408,5.615,14.4,9.071,23.472,10.367v-24.695
					c-2.808-0.864-5.256-2.16-7.271-4.104c-10.8-10.008-7.128-33.048,7.271-59.472v-55.584
					c-10.151,30.168-24.191,55.8-38.304,72.144V270.271z M87.752,38.936c-21.816,17.496-43.271,47.592-58.032,84.6
					c-10.224,25.56-15.84,50.904-17.136,73.368v18.576c1.729,28.08,11.52,49.031,28.872,56.016
					c13.392,5.328,29.376,1.512,45.36-9.36c0.216,2.808,0.504,5.472,0.936,8.136V236.72c-12.384,14.4-24.912,21.601-34.776,18.216
					c-21.239-7.056-22.896-59.615-3.743-116.928c10.224-30.528,24.336-56.376,38.52-72.864V38.936z"/>
				<path style="fill:none;stroke:#000000;stroke-width:7.992;" d="M167.024,117.848c7.056-46.008-2.448-83.664-26.856-93.456
					C106.472,10.928,56.864,55.496,29.72,123.536c-27.216,68.04-21.888,134.495,11.736,147.96c13.392,5.328,29.376,1.512,45.36-9.36
					c0.936,15.12,6.048,27.72,15.768,35.929c15.12,13.392,39.024,14.184,65.304,4.463c-13.823,27.648-16.2,52.129-3.815,65.881
					c22.68,25.199,86.544,4.896,142.128-45.217c55.656-50.039,82.584-111.455,59.903-136.655
					c-14.976-16.632-47.951-13.392-84.672,5.184c18.721-40.176,19.368-78.336-2.376-96.912
					C255.08,73.64,209.288,84.584,167.024,117.848z M122.6,46.856c21.24,7.128,22.896,59.688,3.744,117
					c-19.224,57.24-52.2,98.208-73.368,91.08c-21.239-7.056-22.896-59.615-3.743-116.928C68.456,80.696,101.36,39.8,122.6,46.856z
					 M263.072,124.544c16.92,15.696-1.729,63.36-41.473,106.056c-39.743,42.769-85.968,64.729-102.815,49.032
					c-16.92-15.696,1.728-63.36,41.472-106.056C200,130.808,246.224,108.848,263.072,124.544z M331.832,201.943
					c15.48,14.617-4.464,61.129-44.496,103.465c-40.032,42.408-85.32,65.016-100.8,50.4C170.984,341.12,191,294.68,231.032,252.271
					S316.352,187.256,331.832,201.943z"/>
			</g>
			<g>
				<path style="fill:#FFFF00;" d="M187.328,361.208c30.168,1.008,74.88-19.656,115.271-56.017
					c55.656-50.039,82.584-111.455,59.904-136.655c-14.976-16.632-47.952-13.392-84.672,5.184
					c18.72-40.176,19.368-78.336-2.376-96.912c-19.44-17.208-53.424-13.176-88.128,6.768v43.92
					c30.456-23.328,59.544-32.688,72.144-20.952c16.92,15.696-1.728,63.36-41.472,106.056
					c-10.008,10.801-20.448,20.232-30.672,28.08V290c8.496-17.28,22.32-36.936,40.104-55.729
					c40.032-42.408,85.32-65.016,100.801-50.328c15.479,14.617-4.465,61.128-44.496,103.464
					c-36.721,38.88-77.904,61.128-96.408,53.279V361.208z M163.424,99.848c7.057-46.008-2.448-83.664-26.855-93.456
					c-4.465-1.728-9.217-2.52-14.112-2.376v26.568c17.928,11.448,18.36,61.2,0.288,115.272c-0.072,0.216-0.216,0.432-0.288,0.72
					v55.584c8.208-15.048,19.8-31.104,34.2-46.584c10.008-10.8,20.447-20.232,30.672-28.08v-43.92
					C179.336,88.184,171.344,93.656,163.424,99.848z M122.456,290.432c12.384,1.801,26.712-0.287,41.832-5.904
					c-13.824,27.648-16.2,52.129-3.816,65.881c6.192,6.912,15.48,10.367,26.856,10.8v-20.521c-1.656-0.72-3.168-1.728-4.393-2.879
					c-8.64-8.137-6.264-26.137,4.393-47.809v-49.32c-25.561,19.584-50.112,29.376-64.872,25.057V290.432z M122.456,4.016
					c-12.024,0.432-25.2,6.408-38.304,16.92v26.208c12.456-14.4,24.912-21.6,34.848-18.288c1.224,0.432,2.376,1.008,3.456,1.728
					V4.016z M84.152,252.271c2.088,11.521,6.912,21.097,14.832,27.793c6.407,5.615,14.399,9.071,23.472,10.367v-24.695
					c-2.808-0.864-5.256-2.16-7.272-4.104c-10.8-10.008-7.128-33.048,7.272-59.472v-55.584
					c-10.152,30.168-24.192,55.8-38.304,72.144V252.271z M84.152,20.936c-21.816,17.496-43.272,47.592-58.032,84.6
					c-10.224,25.56-15.84,50.904-17.136,73.368v18.577c1.728,28.08,11.52,49.031,28.872,56.016
					c13.392,5.328,29.376,1.512,45.359-9.36c0.216,2.808,0.504,5.472,0.937,8.136V218.72c-12.385,14.4-24.912,21.601-34.776,18.216
					c-21.24-7.056-22.896-59.616-3.744-116.928C55.856,89.48,69.968,63.632,84.152,47.144V20.936z"/>
				<path style="fill:none;stroke:#FF4F00;stroke-width:7.992;" d="M163.424,99.848c7.057-46.008-2.448-83.664-26.855-93.456
					C102.872-7.072,53.264,37.496,26.12,105.536c-27.216,68.04-21.888,134.496,11.736,147.96c13.392,5.328,29.376,1.512,45.359-9.36
					c0.937,15.12,6.048,27.72,15.769,35.929c15.119,13.392,39.023,14.184,65.304,4.463c-13.824,27.648-16.2,52.129-3.816,65.881
					c22.681,25.199,86.544,4.896,142.128-45.217c55.656-50.039,82.584-111.455,59.904-136.655
					c-14.976-16.632-47.952-13.392-84.672,5.184c18.72-40.176,19.368-78.336-2.376-96.912
					C251.48,55.64,205.688,66.584,163.424,99.848z M119,28.856c21.24,7.128,22.896,59.688,3.744,117
					c-19.225,57.24-52.2,98.208-73.368,91.08c-21.24-7.056-22.896-59.616-3.744-116.928C64.856,62.696,97.76,21.8,119,28.856z
					 M259.472,106.544c16.92,15.696-1.728,63.36-41.472,106.056c-39.744,42.769-85.968,64.729-102.816,49.032
					c-16.92-15.696,1.729-63.36,41.473-106.056C196.4,112.808,242.624,90.848,259.472,106.544z M328.232,183.944
					c15.479,14.617-4.465,61.128-44.496,103.464c-40.032,42.408-85.32,65.016-100.801,50.4
					c-15.552-14.688,4.465-61.129,44.496-103.537C267.464,191.864,312.752,169.256,328.232,183.944z"/>
			</g>
		</g>
	</g>
</svg>

<?xml version="1.0" encoding="UTF-8" standalone="no"?>
<!-- Generator: Adobe Illustrator 10, SVG Export Plug-In . SVG Version: 3.0.0 Build 76)  -->
<svg
   xmlns:dc="http://purl.org/dc/elements/1.1/"
   xmlns:cc="http://creativecommons.org/ns#"
   xmlns:rdf="http://www.w3.org/1999/02/22-rdf-syntax-ns#"
   xmlns:svg="http://www.w3.org/2000/svg"
   xmlns="http://www.w3.org/2000/svg"
   xmlns:sodipodi="http://sodipodi.sourceforge.net/DTD/sodipodi-0.dtd"
   xmlns:inkscape="http://www.inkscape.org/namespaces/inkscape"
   width="373.41687"
   height="383.23477"
   viewBox="0 0 468.311 461.854"
   style="overflow:visible"
   xml:space="preserve"
   id="svg2583"
   sodipodi:version="0.32"
   inkscape:version="0.46"
   sodipodi:docname="discard3.svg"
   inkscape:output_extension="org.inkscape.output.svg.inkscape"
   version="1.0"><metadata
   id="metadata2621"><rdf:RDF><cc:Work
       rdf:about=""><dc:format>image/svg+xml</dc:format><dc:type
         rdf:resource="http://purl.org/dc/dcmitype/StillImage" /></cc:Work></rdf:RDF></metadata><defs
   id="defs2619"><inkscape:perspective
   sodipodi:type="inkscape:persp3d"
   inkscape:vp_x="0 : 230.927 : 1"
   inkscape:vp_y="0 : 1000 : 0"
   inkscape:vp_z="468.311 : 230.927 : 1"
   inkscape:persp3d-origin="234.1555 : 153.95133 : 1"
   id="perspective2623" />
		
		
	</defs><sodipodi:namedview
   inkscape:window-height="670"
   inkscape:window-width="640"
   inkscape:pageshadow="2"
   inkscape:pageopacity="0.0"
   guidetolerance="10.0"
   gridtolerance="10.0"
   objecttolerance="10.0"
   borderopacity="1.0"
   bordercolor="#666666"
   pagecolor="#ffffff"
   id="base"
   showgrid="false"
   inkscape:zoom="1.0003161"
   inkscape:cx="234.1555"
   inkscape:cy="230.927"
   inkscape:window-x="25"
   inkscape:window-y="0"
   inkscape:current-layer="svg2583" />
	<style
   type="text/css"
   id="style2585">
	
		@font-face{font-family:'Times-Roman';src:url(7CA7AD7F.cef)}
	
	</style>
	
<g
   style="overflow:visible"
   id="g2604"
   transform="matrix(1.2541238,0,0,1.2541238,-5.9317127,-9.3801677)">
			<g
   id="g2606">
				<path
   id="path2608"
   d="M 190.928,379.208 C 221.096,380.216 265.808,359.552 306.2,323.191 C 361.856,273.152 388.784,211.736 366.103,186.536 C 351.127,169.904 318.152,173.144 281.431,191.72 C 300.152,151.544 300.799,113.384 279.055,94.808 C 259.616,77.6 225.631,81.632 190.927,101.576 L 190.927,145.496 C 221.383,122.168 250.471,112.808 263.072,124.544 C 279.992,140.24 261.343,187.904 221.599,230.6 C 211.591,241.401 201.152,250.832 190.927,258.68 L 190.927,308 C 199.423,290.72 213.247,271.064 231.031,252.271 C 271.063,209.863 316.35,187.255 331.831,201.943 C 347.311,216.56 327.367,263.072 287.335,305.408 C 250.615,344.288 209.431,366.536 190.927,358.687 L 190.927,379.208 L 190.928,379.208 z M 167.024,117.848 C 174.08,71.84 164.576,34.184 140.168,24.392 C 135.704,22.664 130.952,21.872 126.056,22.016 L 126.056,48.584 C 143.985,60.032 144.416,109.784 126.344,163.856 C 126.272,164.072 126.128,164.288 126.056,164.576 L 126.056,220.16 C 134.264,205.111 145.857,189.056 160.256,173.576 C 170.264,162.776 180.704,153.344 190.928,145.496 L 190.928,101.576 C 182.936,106.184 174.944,111.656 167.024,117.848 z M 126.056,308.432 C 138.441,310.233 152.768,308.145 167.888,302.528 C 154.065,330.176 151.688,354.657 164.073,368.409 C 170.264,375.321 179.552,378.776 190.928,379.209 L 190.928,358.688 C 189.272,357.968 187.76,356.96 186.536,355.809 C 177.896,347.672 180.271,329.672 190.928,308 L 190.928,258.68 C 165.368,278.264 140.817,288.056 126.056,283.737 L 126.056,308.432 L 126.056,308.432 z M 126.056,22.016 C 114.033,22.448 100.857,28.424 87.752,38.936 L 87.752,65.144 C 100.208,50.744 112.664,43.544 122.6,46.856 C 123.825,47.288 124.976,47.864 126.056,48.584 L 126.056,22.016 L 126.056,22.016 z M 87.752,270.271 C 89.84,281.792 94.664,291.368 102.584,298.064 C 108.992,303.679 116.984,307.135 126.056,308.431 L 126.056,283.736 C 123.248,282.872 120.8,281.576 118.785,279.632 C 107.985,269.624 111.657,246.584 126.056,220.16 L 126.056,164.576 C 115.905,194.744 101.865,220.376 87.752,236.72 L 87.752,270.271 L 87.752,270.271 z M 87.752,38.936 C 65.936,56.432 44.481,86.528 29.72,123.536 C 19.496,149.096 13.88,174.44 12.584,196.904 L 12.584,215.48 C 14.313,243.56 24.104,264.511 41.456,271.496 C 54.848,276.824 70.832,273.008 86.816,262.136 C 87.032,264.944 87.32,267.608 87.752,270.272 L 87.752,236.72 C 75.368,251.12 62.84,258.321 52.976,254.936 C 31.737,247.88 30.08,195.321 49.233,138.008 C 59.457,107.48 73.569,81.632 87.753,65.144 L 87.753,38.936 L 87.752,38.936 z" />
				<path
   id="path2610"
   d="M 167.024,117.848 C 174.08,71.84 164.576,34.184 140.168,24.392 C 106.472,10.928 56.864,55.496 29.72,123.536 C 2.504,191.576 7.832,258.031 41.456,271.496 C 54.848,276.824 70.832,273.008 86.816,262.136 C 87.752,277.256 92.864,289.856 102.584,298.065 C 117.704,311.457 141.608,312.249 167.888,302.528 C 154.065,330.176 151.688,354.657 164.073,368.409 C 186.753,393.608 250.617,373.305 306.201,323.192 C 361.857,273.153 388.785,211.737 366.104,186.537 C 351.128,169.905 318.153,173.145 281.432,191.721 C 300.153,151.545 300.8,113.385 279.056,94.809 C 255.08,73.64 209.288,84.584 167.024,117.848 z M 122.6,46.856 C 143.84,53.984 145.496,106.544 126.344,163.856 C 107.12,221.096 74.144,262.064 52.976,254.936 C 31.737,247.88 30.08,195.321 49.233,138.008 C 68.456,80.696 101.36,39.8 122.6,46.856 z M 263.072,124.544 C 279.992,140.24 261.343,187.904 221.599,230.6 C 181.856,273.369 135.631,295.329 118.784,279.632 C 101.864,263.936 120.512,216.272 160.256,173.576 C 200,130.808 246.224,108.848 263.072,124.544 z M 331.832,201.943 C 347.312,216.56 327.368,263.072 287.336,305.408 C 247.304,347.816 202.016,370.424 186.536,355.808 C 170.984,341.12 191,294.68 231.032,252.271 C 271.064,209.862 316.352,187.256 331.832,201.943 z"
   style="fill:none;stroke:#000000;stroke-width:7.9920001" />
			</g>
			<g
   id="g2612">
				<path
   id="path2614"
   d="M 187.328,361.208 C 217.496,362.216 262.208,341.552 302.599,305.191 C 358.255,255.152 385.183,193.736 362.503,168.536 C 347.527,151.904 314.551,155.144 277.831,173.72 C 296.551,133.544 297.199,95.384 275.455,76.808 C 256.015,59.6 222.031,63.632 187.327,83.576 L 187.327,127.496 C 217.783,104.168 246.871,94.808 259.471,106.544 C 276.391,122.24 257.743,169.904 217.999,212.6 C 207.991,223.401 197.551,232.832 187.327,240.68 L 187.327,290 C 195.823,272.72 209.647,253.064 227.431,234.271 C 267.463,191.863 312.751,169.255 328.232,183.943 C 343.711,198.56 323.767,245.071 283.736,287.407 C 247.015,326.287 205.832,348.535 187.328,340.686 L 187.328,361.208 L 187.328,361.208 z M 163.424,99.848 C 170.481,53.84 160.976,16.184 136.569,6.392 C 132.104,4.664 127.352,3.872 122.457,4.016 L 122.457,30.584 C 140.385,42.032 140.817,91.784 122.745,145.856 C 122.673,146.072 122.529,146.288 122.457,146.576 L 122.457,202.16 C 130.665,187.112 142.257,171.056 156.657,155.576 C 166.665,144.776 177.104,135.344 187.329,127.496 L 187.329,83.576 C 179.336,88.184 171.344,93.656 163.424,99.848 z M 122.456,290.432 C 134.84,292.233 149.168,290.145 164.288,284.528 C 150.464,312.176 148.088,336.657 160.472,350.409 C 166.664,357.321 175.952,360.776 187.328,361.209 L 187.328,340.688 C 185.672,339.968 184.16,338.96 182.935,337.809 C 174.295,329.672 176.671,311.672 187.328,290 L 187.328,240.68 C 161.767,260.264 137.216,270.056 122.456,265.737 L 122.456,290.432 L 122.456,290.432 z M 122.456,4.016 C 110.432,4.448 97.256,10.424 84.152,20.936 L 84.152,47.144 C 96.608,32.744 109.064,25.544 119,28.856 C 120.224,29.288 121.376,29.864 122.456,30.584 L 122.456,4.016 L 122.456,4.016 z M 84.152,252.271 C 86.24,263.792 91.064,273.368 98.984,280.064 C 105.391,285.679 113.383,289.135 122.456,290.431 L 122.456,265.736 C 119.648,264.872 117.2,263.576 115.184,261.632 C 104.384,251.624 108.056,228.584 122.456,202.16 L 122.456,146.576 C 112.304,176.744 98.264,202.376 84.152,218.72 L 84.152,252.271 z M 84.152,20.936 C 62.336,38.432 40.88,68.528 26.12,105.536 C 15.896,131.096 10.28,156.44 8.984,178.904 L 8.984,197.481 C 10.712,225.561 20.504,246.512 37.856,253.497 C 51.248,258.825 67.232,255.009 83.215,244.137 C 83.431,246.945 83.719,249.609 84.152,252.273 L 84.152,218.72 C 71.767,233.12 59.24,240.321 49.376,236.936 C 28.136,229.88 26.48,177.32 45.632,120.008 C 55.856,89.48 69.968,63.632 84.152,47.144 L 84.152,20.936 z"
   style="fill:#ffff00" />
				<path
   id="path2616"
   d="M 163.424,99.848 C 170.481,53.84 160.976,16.184 136.569,6.392 C 102.872,-7.072 53.264,37.496 26.12,105.536 C -1.096,173.576 4.232,240.032 37.856,253.496 C 51.248,258.824 67.232,255.008 83.215,244.136 C 84.152,259.256 89.263,271.856 98.984,280.065 C 114.103,293.457 138.007,294.249 164.288,284.528 C 150.464,312.176 148.088,336.657 160.472,350.409 C 183.153,375.608 247.016,355.305 302.6,305.192 C 358.256,255.153 385.184,193.737 362.504,168.537 C 347.528,151.905 314.552,155.145 277.832,173.721 C 296.552,133.545 297.2,95.385 275.456,76.809 C 251.48,55.64 205.688,66.584 163.424,99.848 z M 119,28.856 C 140.24,35.984 141.896,88.544 122.744,145.856 C 103.519,203.096 70.544,244.064 49.376,236.936 C 28.136,229.88 26.48,177.32 45.632,120.008 C 64.856,62.696 97.76,21.8 119,28.856 z M 259.472,106.544 C 276.392,122.24 257.744,169.904 218,212.6 C 178.256,255.369 132.032,277.329 115.184,261.632 C 98.264,245.936 116.913,198.272 156.657,155.576 C 196.4,112.808 242.624,90.848 259.472,106.544 z M 328.232,183.944 C 343.711,198.561 323.767,245.072 283.736,287.408 C 243.704,329.816 198.416,352.424 182.935,337.808 C 167.383,323.12 187.4,276.679 227.431,234.271 C 267.464,191.864 312.752,169.256 328.232,183.944 z"
   style="fill:none;stroke:#ff4f00;stroke-width:7.9920001" />
			</g>
		</g></svg>
